public/assets/instagram-primary.svg

<svg width="20" height="20" viewBox="0 0 20 20" fill="none" xmlns="http://www.w3.org/2000/svg">
<path d="M10 5C9.01109 5 8.04439 5.29324 7.22215 5.84265C6.3999 6.39206 5.75904 7.17295 5.3806 8.08658C5.00216 9.00021 4.90315 10.0055 5.09607 10.9755C5.289 11.9454 5.7652 12.8363 6.46447 13.5355C7.16373 14.2348 8.05464 14.711 9.02455 14.9039C9.99445 15.0969 10.9998 14.9978 11.9134 14.6194C12.827 14.241 13.6079 13.6001 14.1573 12.7779C14.7068 11.9556 15 10.9889 15 10C15 8.67392 14.4732 7.40215 13.5355 6.46447C12.5979 5.52678 11.3261 5 10 5V5ZM10 13C9.40666 13 8.82664 12.8241 8.33329 12.4944C7.83994 12.1648 7.45542 11.6962 7.22836 11.1481C7.0013 10.5999 6.94189 9.99667 7.05764 9.41473C7.1734 8.83279 7.45912 8.29824 7.87868 7.87868C8.29824 7.45912 8.83279 7.1734 9.41473 7.05764C9.99667 6.94189 10.5999 7.0013 11.1481 7.22836C11.6962 7.45542 12.1648 7.83994 12.4944 8.33329C12.8241 8.82664 13 9.40666 13 10C13 10.7956 12.6839 11.5587 12.1213 12.1213C11.5587 12.6839 10.7956 13 10 13ZM15 4C14.8022 4 14.6089 4.05865 14.4444 4.16853C14.28 4.27841 14.1518 4.43459 14.0761 4.61732C14.0004 4.80004 13.9806 5.00111 14.0192 5.19509C14.0578 5.38907 14.153 5.56725 14.2929 5.70711C14.4327 5.84696 14.6109 5.9422 14.8049 5.98079C14.9989 6.01937 15.2 5.99957 15.3827 5.92388C15.5654 5.84819 15.7216 5.72002 15.8315 5.55557C15.9414 5.39112 16 5.19778 16 5C16 4.73478 15.8946 4.48043 15.7071 4.29289C15.5196 4.10536 15.2652 4 15 4ZM19.94 6.24C19.9234 5.38542 19.7611 4.53995 19.46 3.74C19.1808 3.01207 18.7516 2.35099 18.2003 1.7997C17.649 1.2484 16.9879 0.819216 16.26 0.54C15.4601 0.238899 14.6146 0.0765676 13.76 0.0599999C12.79 -5.58794e-08 12.47 0 10 0C7.53 0 7.21 -5.58794e-08 6.24 0.0599999C5.38542 0.0765676 4.53995 0.238899 3.74 0.54C3.01207 0.819216 2.35099 1.2484 1.7997 1.7997C1.2484 2.35099 0.819216 3.01207 0.54 3.74C0.238899 4.53995 0.0765676 5.38542 0.0599999 6.24C-5.58794e-08 7.22 0 7.54 0 10C0 12.46 -5.58794e-08 12.78 0.0599999 13.76C0.0765676 14.6146 0.238899 15.4601 0.54 16.26C0.819216 16.9879 1.2484 17.649 1.7997 18.2003C2.35099 18.7516 3.01207 19.1808 3.74 19.46C4.53995 19.7611 5.38542 19.9234 6.24 19.94C7.24 19.94 7.53 20 10 20C12.47 20 12.79 20 13.76 19.94C14.6146 19.9234 15.4601 19.7611 16.26 19.46C16.9879 19.1808 17.649 18.7516 18.2003 18.2003C18.7516 17.649 19.1808 16.9879 19.46 16.26C19.7611 15.4601 19.9234 14.6146 19.94 13.76C19.94 12.76 20 12.46 20 10C20 7.54 20 7.22 19.94 6.24ZM17.94 13.67C17.9225 14.3046 17.8043 14.9324 17.59 15.53C17.4128 16.0023 17.1327 16.4293 16.77 16.78C16.4214 17.1428 15.9936 17.4201 15.52 17.59C14.921 17.8131 14.289 17.9348 13.65 17.95C12.71 17.95 12.42 18 9.99 18C7.56 18 7.28 18 6.34 18C5.70202 17.9835 5.07075 17.8654 4.47 17.65C3.99766 17.4728 3.57067 17.1927 3.22 16.83C2.85715 16.4814 2.57992 16.0536 2.41 15.58C2.1878 14.9842 2.06615 14.3557 2.05 13.72C2.05 12.72 2.05 12.47 2.05 10.05C2.05 7.63 2.05 7.34 2.05 6.38C2.06724 5.74121 2.18884 5.10954 2.41 4.51C2.58256 4.04063 2.85953 3.61662 3.22 3.27C3.56858 2.90715 3.99641 2.62992 4.47 2.46C5.06899 2.2369 5.70099 2.11523 6.34 2.1C7.28 2 7.57 2 10 2C12.43 2 12.72 2 13.66 2C14.3021 2.01633 14.9373 2.13794 15.54 2.36C16.0094 2.53256 16.4334 2.80953 16.78 3.17C17.1428 3.51858 17.4201 3.94641 17.59 4.42C17.8348 5.02856 17.9735 5.67458 18 6.33C18 7.33 18.05 7.58 18.05 10C18.05 12.42 18 12.71 18 13.67H17.94Z" fill="#DFBB41"/>
</svg>

<svg width="20" height="20" fill="none" xmlns="http://www.w3.org/2000/svg"><path d="M10 5a5 5 0 1 0 0 10 5 5 0 0 0 0-10Zm0 8a3 3 0 1 1 0-6 3 3 0 0 1 0 6Zm5-9a1 1 0 1 0 0 2 1 1 0 0 0 0-2Zm4.94 2.24a7.51 7.51 0 0 0-.48-2.5 5.56 5.56 0 0 0-3.2-3.2 7.51 7.51 0 0 0-2.5-.48C12.79 0 12.47 0 10 0 7.53 0 7.21 0 6.24.06a7.51 7.51 0 0 0-2.5.48 5.56 5.56 0 0 0-3.2 3.2 7.51 7.51 0 0 0-.48 2.5C0 7.22 0 7.54 0 10s0 2.78.06 3.76c.017.855.179 1.7.48 2.5a5.56 5.56 0 0 0 3.2 3.2 7.51 7.51 0 0 0 2.5.48c1 0 1.29.06 3.76.06 2.47 0 2.79 0 3.76-.06a7.51 7.51 0 0 0 2.5-.48 5.56 5.56 0 0 0 3.2-3.2 7.51 7.51 0 0 0 .48-2.5c0-1 .06-1.3.06-3.76s0-2.78-.06-3.76Zm-2 7.43a6 6 0 0 1-.35 1.86 3.4 3.4 0 0 1-.82 1.25 3.26 3.26 0 0 1-1.25.81 5.75 5.75 0 0 1-1.87.36c-.94 0-1.23.05-3.66.05H6.34a6 6 0 0 1-1.87-.35 3.4 3.4 0 0 1-1.25-.82 3.26 3.26 0 0 1-.81-1.25 5.74 5.74 0 0 1-.36-1.86V6.38a5.86 5.86 0 0 1 .36-1.87 3.3 3.3 0 0 1 .81-1.24 3.26 3.26 0 0 1 1.25-.81 5.75 5.75 0 0 1 1.87-.36C7.28 2 7.57 2 10 2h3.66a5.87 5.87 0 0 1 1.88.36 3.3 3.3 0 0 1 1.24.81c.363.349.64.776.81 1.25A5.74 5.74 0 0 1 18 6.33c0 1 .05 1.25.05 3.67S18 12.71 18 13.67h-.06Z" fill="#DFBB41"/></svg>
